X: 26618
T: Mickey Callaghan's Fancy
R: hornpipe
M: 4/4
K: Fmajor
AG|:FDCD FGAG|FDCD FGAB|cAdA cAFA|AGGF (3GAB AG|
FDCD FGAG|FDCD FGAB|cAdA cAFA|1 GFEG F2 AG:|2 GFEG FGAc||
|:d2 df dcAB|c2 cd cAFA|B2 dB A2GF|DGGF (3GAB AG|
FDCD FGAG|FDCD FGAB|cAdA cAFA|1 GFEG FGAc:|2 GFEG F2 AG||

